X:584
T:When the Cock Crows it is Day.
T:Air glao.da.c an coileai.g ata se la.
R:jig
N:"Boldly.""2nd Setting."
Z:transcribed by J.B. Walsh, walsh@math.ubc.ca
M:6/8
L:1/8
<START_ANN> %Q:90 <END_ANN>
K:Gmix
G|Gcc BGA|G3 G2 G|Gc.c Bc.d|e2 c d2B|
Gcc cBc|def edc|dBG FEF|G3 G2||
G|Gc.c BGA|G3 G2 G|Gc.c Bcd|e2 c d2B|
Gc.c .cBc|def edc|dBG GFEF|G3 G2|||
